X:1
T: Jigg #1
C:Robert Mackintosh
R:Jig
Q:180
K:Bb
M:6/8
L:1/16
B2c2B2 b2a2b2|d2c2B2 g6|d4e2 f2d2B2|c2d2B2 A2G2F2|B2c2B2 b2a2b2|d2=e2f2 b2a2g2|a2g2f2 g2f2=e2|f4f2 f6|
f4d2 g4f2|e4c2 f4e2|d4f2 e4d2|c2e2B2 A2G2F2|f2d2B2 g6|e2c2A2 f4e2|d2f2b2 e2d2c2|B4B2 B6|
F4B2 d4f2|F4A2 c4e2|f4f2 e4d2|c2B2A2 G2A2F2|B4f2 d4B2|c4=e2 g4b2|a2g2f2 g2f2=e2|f4F2 F6|
f6 a2g2f2|b2f2e2 d2c2B2|g6 f2e2d2|c2B2A2 G2A2F2|b6 f2d2B2|g6e2d2c2|d2f2B2 c2B2A2|B4B2B6||
